X: 11123
Q: "Reel."
M: C
L: 1/8
K: A
{AB}c2B2 A2a2 | e^fge dBGB |\
{AB}c2B2 A2a2 | ge^fd e2A :| B |\
c>deA c>deA | d/c/B/A/ Gd BGdB |
c>deA cdea | ge^fd e2AB |\
c>deA c>deA | BAGd BGdB |\
c>deA c>deA | BcdB {B}e2A |] B |\
c>de^f g>age |
gage d/c/B/A/ GB |\
c>de^f eage | aba^g a2AB |\
c>de^f gage | gage {d}cB/A/ GB |\
cde^f gagf | ea^gb a2A |]


